!!!OTL: Der Nachtjaeger
!!!OTL-incipit:Es stiess ein Jaeger wohl in sein Horn,
!!!ARE: Europa, Mitteleuropa, Deutschland / UdSSR, Ostpreussen
!!!YOR: 6, S. 188
!!    1911 gedruckt in Berlin
!!!SCT: Q0133G
!!!TXL: @@DE
!!!YEM: Copyright 1995, estate of Helmut Schaffrath.
**kern	**text
*ICvox	*
*M4/4	*
*met(c)	*
*k[b-]	*
*F:	*
!LO:TX:a:t=35 Ostpreußen	!
{4f	Es
=1	=1
4a	stieß
4f	ein
8aL	Ja-
8aJ	-ger
4cc	wohl
=2	=2
4.cc	in
8a	sein
4f	Horn,
4r}	.
=3	=3
{2ff	wohl
4ee	in
4dd	sein
=4	=4
2cc;	Horn;
4r}	.
{4a	und
=5	=5
8b-L	al-
8aJ	-les,
8gL	was
8b-J	er
(8ddL	blies,
8cc	.
8b-)	.
8gJ	das
=6	=6
4.f	war
8a	ver-
4.cc	-lor'n,
8r}	.
=7	=7
{2g	war
2e	ver-
=8	=8
4.f	-lor'n.
8r	.
4r}	.
==	==
!!!AGN: Ballade, Jagd, Flucht, Vergewaltigung, Tod
!!!ONB: ESAC (Essen Associative Code) Database: BALLADE
!!!AMT: simple quadruple
!!!AIN: vox
!!!EED: Helmut Schaffrath
!!!EEV: 1.0
!!!source: Deutsche Volkslieder mit ihren Melodien Balladen. Herausgegeben vom Deutschen Volksliedarchiv. Sechster Band. Freiburg/Breisgau 1976.
!!!page: 188
!!!ENC: Anna Maria Matuszewska
!!!EEV: 2025/03/06
*-	*-
